;FLAVOR:Marlin
;TIME:681
;Filament used: 0.276469m
;Layer height: 0.12
;MINX:93.285
;MINY:69.155
;MINZ:0.12
;MAXX:126.715
;MAXY:150.845
;MAXZ:1.08
;Generated with Cura_SteamEngine 5.2.2
M82 ;absolute extrusion mode
; Ender 3 Custom Start G-code
G92 E0 ; Reset Extruder
G28 ; Home all axes
G29
M104 S175 ; Start heating up the nozzle most of the way
M190 S60 ; Start heating the bed, wait until target temperature reached
M109 S200 ; Finish heating the nozzle
G1 Z2.0 F3000 ; Move Z Axis up little to prevent scratching of Heat Bed
G1 X0.1 Y20 Z0.3 F5000.0 ; Move to start position
G1 X0.1 Y200.0 Z0.3 F1500.0 E15 ; Draw the first line
G1 X0.4 Y200.0 Z0.3 F5000.0 ; Move to side a little
G1 X0.4 Y20 Z0.3 F1500.0 E30 ; Draw the second line
G92 E0 ; Reset Extruder
G1 Z2.0 F3000 ; Move Z Axis up little to prevent scratching of Heat Bed
G1 X5 Y20 Z0.3 F5000.0 ; Move over to prevent blob squish
G92 E0
G92 E0
G1 F1500 E-6.5
;LAYER_COUNT:9
;LAYER:0
M107
G0 F6000 X95.851 Y73.113 Z0.12
;TYPE:SKIRT
G1 F1500 E0
G1 F1200 X96.483 Y72.419 E0.01873
G1 X97.171 Y71.782 E0.03744
G1 X97.911 Y71.206 E0.05616
G1 X98.697 Y70.694 E0.07488
G1 X99.524 Y70.252 E0.09359
G1 X100.386 Y69.882 E0.11231
G1 X101.276 Y69.586 E0.13103
G1 X102.188 Y69.368 E0.14974
G1 X103.115 Y69.227 E0.16845
G1 X103.986 Y69.168 E0.18587
G1 X104.615 Y69.155 E0.19843
G1 X115.166 Y69.156 E0.40898
G1 X115.864 Y69.166 E0.42292
G1 X116.8 Y69.22 E0.44163
G1 X117.728 Y69.352 E0.46033
G1 X118.642 Y69.564 E0.47906
G1 X119.534 Y69.853 E0.49777
G1 X120.399 Y70.216 E0.51649
G1 X121.229 Y70.652 E0.5352
G1 X122.02 Y71.157 E0.55393
G1 X122.764 Y71.728 E0.57264
G1 X123.457 Y72.36 E0.59136
G1 X124.094 Y73.048 E0.61007
G1 X124.669 Y73.789 E0.62879
G1 X125.18 Y74.575 E0.6475
G1 X125.622 Y75.403 E0.66623
G1 X125.991 Y76.265 E0.68494
G1 X126.286 Y77.155 E0.70365
G1 X126.504 Y78.067 E0.72236
G1 X126.644 Y78.995 E0.74109
G1 X126.702 Y79.856 E0.75831
G1 X126.715 Y80.485 E0.77087
G1 X126.714 Y139.245 E1.94349
G1 X126.705 Y139.972 E1.958
G1 X126.654 Y140.909 E1.97672
G1 X126.522 Y141.837 E1.99543
G1 X126.313 Y142.751 E2.01414
G1 X126.026 Y143.644 E2.03286
G1 X125.664 Y144.51 E2.05159
G1 X125.23 Y145.341 E2.0703
G1 X124.726 Y146.132 E2.08901
G1 X124.157 Y146.877 E2.10772
G1 X123.526 Y147.572 E2.12645
G1 X122.839 Y148.21 E2.14516
G1 X122.1 Y148.787 E2.16387
G1 X121.314 Y149.299 E2.18259
G1 X120.488 Y149.742 E2.2013
G1 X119.626 Y150.114 E2.22003
G1 X118.737 Y150.41 E2.23873
G1 X117.825 Y150.63 E2.25746
G1 X116.898 Y150.771 E2.27617
G1 X116.014 Y150.832 E2.29385
G1 X115.385 Y150.845 E2.30641
G1 X104.85 Y150.844 E2.51664
G1 X104.152 Y150.835 E2.53057
G1 X103.216 Y150.783 E2.54928
G1 X102.287 Y150.651 E2.56801
G1 X101.373 Y150.441 E2.58672
G1 X100.48 Y150.154 E2.60544
G1 X99.615 Y149.791 E2.62416
G1 X98.784 Y149.357 E2.64287
G1 X97.993 Y148.853 E2.66159
G1 X97.248 Y148.283 E2.68031
G1 X96.554 Y147.652 E2.69902
G1 X95.917 Y146.965 E2.71772
G1 X95.34 Y146.225 E2.73645
G1 X94.828 Y145.439 E2.75517
G1 X94.385 Y144.612 E2.77389
G1 X94.014 Y143.751 E2.7926
G1 X93.718 Y142.861 E2.81132
G1 X93.499 Y141.949 E2.83003
G1 X93.358 Y141.022 E2.84875
G1 X93.298 Y140.133 E2.86653
G1 X93.285 Y139.503 E2.8791
G1 X93.286 Y80.68 E4.05298
G1 X93.295 Y80.015 E4.06625
G1 X93.348 Y79.079 E4.08496
G1 X93.48 Y78.15 E4.10368
G1 X93.691 Y77.236 E4.1224
G1 X93.979 Y76.344 E4.14111
G1 X94.342 Y75.479 E4.15983
G1 X94.777 Y74.648 E4.17855
G1 X95.281 Y73.858 E4.19725
G1 X95.851 Y73.113 E4.21597
G0 F6000 X96.246 Y73.266
G1 F1200 X96.874 Y72.594 E4.23432
G1 X97.559 Y71.978 E4.25271
G1 X98.295 Y71.425 E4.27108
G1 X99.076 Y70.937 E4.28946
G1 X99.896 Y70.519 E4.30783
G1 X100.75 Y70.174 E4.32621
G1 X101.63 Y69.904 E4.34458
G1 X102.53 Y69.712 E4.36294
G1 X103.444 Y69.598 E4.38132
G1 X103.997 Y69.568 E4.39237
G1 X104.615 Y69.555 E4.40471
G1 X115.008 Y69.555 E4.61211
G1 X115.858 Y69.566 E4.62908
G1 X116.777 Y69.619 E4.64745
G1 X117.688 Y69.752 E4.66582
G1 X118.584 Y69.963 E4.68419
G1 X119.458 Y70.251 E4.70255
G1 X120.305 Y70.614 E4.72094
G1 X121.116 Y71.049 E4.73931
G1 X121.886 Y71.553 E4.75767
G1 X122.61 Y72.122 E4.77605
G1 X123.282 Y72.752 E4.79443
G1 X123.897 Y73.437 E4.8128
G1 X124.45 Y74.173 E4.83117
G1 X124.937 Y74.954 E4.84954
G1 X125.354 Y75.775 E4.86792
G1 X125.699 Y76.629 E4.8863
G1 X125.968 Y77.509 E4.90466
G1 X126.16 Y78.41 E4.92305
G1 X126.273 Y79.323 E4.94141
G1 X126.302 Y79.867 E4.95228
G1 X126.315 Y80.485 E4.96461
G1 X126.314 Y139.24 E6.13713
G1 X126.305 Y139.967 E6.15164
G1 X126.254 Y140.886 E6.17001
G1 X126.123 Y141.798 E6.1884
G1 X125.913 Y142.694 E6.20676
G1 X125.627 Y143.569 E6.22513
G1 X125.266 Y144.416 E6.24351
G1 X124.832 Y145.228 E6.26188
G1 X124.33 Y146 E6.28026
G1 X123.762 Y146.725 E6.29864
G1 X123.134 Y147.398 E6.317
G1 X122.45 Y148.014 E6.33537
G1 X121.715 Y148.568 E6.35374
G1 X120.935 Y149.057 E6.37211
G1 X120.115 Y149.476 E6.39049
G1 X119.262 Y149.822 E6.40886
G1 X118.382 Y150.093 E6.42724
G1 X117.482 Y150.286 E6.4456
G1 X116.568 Y150.401 E6.46399
G1 X116.003 Y150.432 E6.47528
G1 X115.385 Y150.445 E6.48762
G1 X104.855 Y150.444 E6.69775
G1 X104.157 Y150.435 E6.71168
G1 X103.238 Y150.383 E6.73005
G1 X102.327 Y150.252 E6.74842
G1 X101.431 Y150.042 E6.76678
G1 X100.556 Y149.755 E6.78516
G1 X99.709 Y149.393 E6.80354
G1 X98.897 Y148.959 E6.82192
G1 X98.126 Y148.457 E6.84028
G1 X97.401 Y147.889 E6.85866
G1 X96.728 Y147.26 E6.87704
G1 X96.113 Y146.576 E6.8954
G1 X95.559 Y145.841 E6.91376
G1 X95.071 Y145.06 E6.93214
G1 X94.652 Y144.24 E6.95052
G1 X94.306 Y143.387 E6.96889
G1 X94.036 Y142.507 E6.98726
G1 X93.843 Y141.606 E7.00565
G1 X93.729 Y140.693 E7.02401
G1 X93.698 Y140.122 E7.03542
G1 X93.685 Y139.503 E7.04777
G1 X93.686 Y80.686 E8.22153
G1 X93.695 Y80.021 E8.2348
G1 X93.747 Y79.101 E8.25319
G1 X93.879 Y78.19 E8.27156
G1 X94.09 Y77.294 E8.28993
G1 X94.377 Y76.419 E8.30831
G1 X94.74 Y75.573 E8.32668
G1 X95.174 Y74.761 E8.34505
G1 X95.677 Y73.99 E8.36342
G1 X96.246 Y73.266 E8.3818
G0 F6000 X96.64 Y73.422
G1 F1200 X97.266 Y72.772 E8.39981
G1 X97.947 Y72.179 E8.41783
G1 X98.679 Y71.649 E8.43586
G1 X99.454 Y71.186 E8.45388
G1 X100.267 Y70.793 E8.4719
G1 X101.112 Y70.473 E8.48993
G1 X101.981 Y70.23 E8.50794
G1 X102.869 Y70.064 E8.52597
G1 X104.008 Y69.968 E8.54878
G1 X104.615 Y69.955 E8.56089
G1 X115.008 Y69.955 E8.7683
G1 X115.852 Y69.966 E8.78514
G1 X116.754 Y70.019 E8.80317
G1 X117.647 Y70.151 E8.82119
G1 X118.525 Y70.362 E8.83921
G1 X119.381 Y70.65 E8.85723
G1 X120.208 Y71.012 E8.87525
G1 X121 Y71.447 E8.89328
G1 X121.751 Y71.949 E8.91131
G1 X122.454 Y72.516 E8.92933
G1 X123.104 Y73.143 E8.94735
G1 X123.696 Y73.825 E8.96537
G1 X124.226 Y74.556 E8.98339
G1 X124.688 Y75.332 E9.00142
G1 X125.081 Y76.145 E9.01944
G1 X125.399 Y76.99 E9.03745
G1 X125.642 Y77.86 E9.05548
G1 X125.807 Y78.748 E9.0735
G1 X125.902 Y79.878 E9.09613
G1 X125.915 Y80.485 E9.10825
G1 X125.914 Y139.235 E10.28067
G1 X125.905 Y139.962 E10.29518
G1 X125.854 Y140.864 E10.31321
G1 X125.723 Y141.758 E10.33124
G1 X125.514 Y142.636 E10.34925
G1 X125.228 Y143.493 E10.36728
G1 X124.867 Y144.321 E10.38531
G1 X124.435 Y145.113 E10.40331
G1 X123.934 Y145.865 E10.42134
G1 X123.368 Y146.569 E10.43937
G1 X122.743 Y147.22 E10.45738
G1 X122.062 Y147.814 E10.47541
G1 X121.331 Y148.345 E10.49344
G1 X120.557 Y148.809 E10.51145
G1 X119.744 Y149.203 E10.52948
G1 X118.9 Y149.523 E10.54749
G1 X118.03 Y149.768 E10.56553
G1 X117.143 Y149.934 E10.58354
G1 X115.992 Y150.032 E10.60659
G1 X115.385 Y150.045 E10.61871
G1 X104.86 Y150.044 E10.82875
G1 X104.162 Y150.035 E10.84268
G1 X103.261 Y149.984 E10.86069
G1 X102.367 Y149.852 E10.87872
G1 X101.489 Y149.643 E10.89673
G1 X100.632 Y149.356 E10.91477
G1 X99.805 Y148.995 E10.93277
G1 X99.012 Y148.562 E10.9508
G1 X98.261 Y148.061 E10.96882
G1 X97.557 Y147.495 E10.98685
G1 X96.906 Y146.869 E11.00487
G1 X96.313 Y146.188 E11.02289
G1 X95.783 Y145.457 E11.04091
G1 X95.319 Y144.682 E11.05894
G1 X94.925 Y143.869 E11.07696
G1 X94.605 Y143.025 E11.09498
G1 X94.361 Y142.155 E11.11301
G1 X94.195 Y141.267 E11.13104
G1 X94.098 Y140.112 E11.15417
G1 X94.085 Y139.503 E11.16632
G1 X94.086 Y80.691 E12.33998
G1 X94.095 Y80.026 E12.35325
G1 X94.147 Y79.124 E12.37128
G1 X94.279 Y78.231 E12.3893
G1 X94.489 Y77.353 E12.40731
G1 X94.776 Y76.496 E12.42535
G1 X95.138 Y75.669 E12.44336
G1 X95.571 Y74.877 E12.46138
G1 X96.073 Y74.126 E12.4794
G1 X96.64 Y73.422 E12.49744
G1 F1500 E5.99744
;MESH:Ping Pong Paddle Handle Insert.stl
G0 F6000 X103.62 Y80.569
G0 X104.699 Y80.569
G0 X105.285 Y138.845
;TYPE:WALL-INNER
G1 F1500 E12.49744
G1 F1200 X114.715 Y138.845 E12.68563
G1 X114.715 Y85.87 E13.7428
G1 X114.715 Y81.155 E13.8369
G1 X105.285 Y81.155 E14.02508
G1 X105.285 Y138.845 E15.17635
G0 F6000 X104.885 Y139.245
G1 F1200 X115.115 Y139.245 E15.3805
G1 X115.115 Y85.87 E16.44565
G1 X115.115 Y80.755 E16.54773
G1 X104.885 Y80.755 E16.75188
G1 X104.885 Y139.245 E17.91911
G0 F6000 X104.485 Y139.645
;TYPE:WALL-OUTER
G1 F1200 X115.515 Y139.645 E18.13923
G1 X115.515 Y85.87 E19.21236
G1 X115.515 Y80.355 E19.32242
G1 X104.485 Y80.355 E19.54254
G1 X104.485 Y139.645 E20.72573
G0 F6000 X104.755 Y139.375
G0 X105.385 Y138.485
G0 X105.645 Y138.485
;TYPE:SKIN
G1 F1200 X114.355 Y138.485 E20.89955
G1 X114.355 Y85.87 E21.94954
G1 X114.355 Y81.515 E22.03645
G1 X105.645 Y81.515 E22.21027
G1 X105.645 Y138.485 E23.34717
G0 F6000 X106.039 Y138.283
G1 F1200 X105.843 Y138.088 E23.35268
G0 F6000 X105.843 Y137.522
G1 F1200 X106.605 Y138.283 E23.37417
G0 F6000 X107.171 Y138.283
G1 F1200 X105.843 Y136.956 E23.41164
G0 F6000 X105.843 Y136.39
G1 F1200 X107.736 Y138.283 E23.46506
G0 F6000 X108.302 Y138.283
G1 F1200 X105.843 Y135.825 E23.53445
G0 F6000 X105.843 Y135.259
G1 F1200 X108.868 Y138.283 E23.61981
G0 F6000 X109.433 Y138.283
G1 F1200 X105.843 Y134.693 E23.72112
G0 F6000 X105.843 Y134.128
G1 F1200 X109.999 Y138.283 E23.8384
G0 F6000 X110.565 Y138.283
G1 F1200 X105.843 Y133.562 E23.97165
G0 F6000 X105.843 Y132.996
G1 F1200 X111.131 Y138.283 E24.12088
G0 F6000 X111.696 Y138.283
G1 F1200 X105.843 Y132.431 E24.28605
G0 F6000 X105.843 Y131.865
G1 F1200 X112.262 Y138.283 E24.46719
G0 F6000 X112.828 Y138.283
G1 F1200 X105.843 Y131.299 E24.66431
G0 F6000 X105.843 Y130.734
G1 F1200 X113.393 Y138.283 E24.87737
G0 F6000 X113.959 Y138.283
G1 F1200 X105.843 Y130.168 E25.10641
G0 F6000 X105.843 Y129.602
G1 F1200 X114.155 Y137.914 E25.34099
G0 F6000 X114.155 Y137.348
G1 F1200 X105.843 Y129.037 E25.57556
G0 F6000 X105.843 Y128.471
G1 F1200 X114.155 Y136.782 E25.81013
G0 F6000 X114.155 Y136.217
G1 F1200 X105.843 Y127.905 E26.04471
G0 F6000 X105.843 Y127.34
G1 F1200 X114.155 Y135.651 E26.27928
G0 F6000 X114.155 Y135.085
G1 F1200 X105.843 Y126.774 E26.51385
G0 F6000 X105.843 Y126.208
G1 F1200 X114.155 Y134.519 E26.74842
G0 F6000 X114.155 Y133.954
G1 F1200 X105.843 Y125.642 E26.983
G0 F6000 X105.843 Y125.077
G1 F1200 X114.155 Y133.388 E27.21757
G0 F6000 X114.155 Y132.822
G1 F1200 X105.843 Y124.511 E27.45213
G0 F6000 X105.843 Y123.945
G1 F1200 X114.155 Y132.257 E27.68672
G0 F6000 X114.155 Y131.691
G1 F1200 X105.843 Y123.38 E27.92129
G0 F6000 X105.843 Y122.814
G1 F1200 X114.155 Y131.125 E28.15585
G0 F6000 X114.155 Y130.56
G1 F1200 X105.843 Y122.248 E28.39044
G0 F6000 X105.843 Y121.683
G1 F1200 X114.155 Y129.994 E28.62501
G0 F6000 X114.155 Y129.428
G1 F1200 X105.843 Y121.117 E28.85957
G0 F6000 X105.843 Y120.551
G1 F1200 X114.155 Y128.863 E29.09416
G0 F6000 X114.155 Y128.297
G1 F1200 X105.843 Y119.986 E29.32873
G0 F6000 X105.843 Y119.42
G1 F1200 X114.155 Y127.731 E29.56329
G0 F6000 X114.155 Y127.166
G1 F1200 X105.843 Y118.854 E29.79788
G0 F6000 X105.843 Y118.289
G1 F1200 X114.155 Y126.6 E30.03244
G0 F6000 X114.155 Y126.034
G1 F1200 X105.843 Y117.723 E30.26701
G0 F6000 X105.843 Y117.157
G1 F1200 X114.155 Y125.469 E30.5016
G0 F6000 X114.155 Y124.903
G1 F1200 X105.843 Y116.592 E30.73616
G0 F6000 X105.843 Y116.026
G1 F1200 X114.155 Y124.337 E30.97073
G0 F6000 X114.155 Y123.771
G1 F1200 X105.843 Y115.46 E31.2053
G0 F6000 X105.843 Y114.894
G1 F1200 X114.155 Y123.206 E31.43988
G0 F6000 X114.155 Y122.64
G1 F1200 X105.843 Y114.329 E31.67445
G0 F6000 X105.843 Y113.763
G1 F1200 X114.155 Y122.074 E31.90902
G0 F6000 X114.155 Y121.509
G1 F1200 X105.843 Y113.197 E32.1436
G0 F6000 X105.843 Y112.632
G1 F1200 X114.155 Y120.943 E32.37817
G0 F6000 X114.155 Y120.377
G1 F1200 X105.843 Y112.066 E32.61274
G0 F6000 X105.843 Y111.5
G1 F1200 X114.155 Y119.812 E32.84732
G0 F6000 X114.155 Y119.246
G1 F1200 X105.843 Y110.935 E33.08189
G0 F6000 X105.843 Y110.369
G1 F1200 X114.155 Y118.68 E33.31646
G0 F6000 X114.155 Y118.115
G1 F1200 X105.843 Y109.803 E33.55104
G0 F6000 X105.843 Y109.238
G1 F1200 X114.155 Y117.549 E33.78561
G0 F6000 X114.155 Y116.983
G1 F1200 X105.843 Y108.672 E34.02018
G0 F6000 X105.843 Y108.106
G1 F1200 X114.155 Y116.418 E34.25476
G0 F6000 X114.155 Y115.852
G1 F1200 X105.843 Y107.541 E34.48933
G0 F6000 X105.843 Y106.975
G1 F1200 X114.155 Y115.286 E34.7239
G0 F6000 X114.155 Y114.721
G1 F1200 X105.843 Y106.409 E34.95848
G0 F6000 X105.843 Y105.843
G1 F1200 X114.155 Y114.155 E35.19306
G0 F6000 X114.155 Y113.589
G1 F1200 X105.843 Y105.278 E35.42763
G0 F6000 X105.843 Y104.712
G1 F1200 X114.155 Y113.023 E35.6622
G0 F6000 X114.155 Y112.458
G1 F1200 X105.843 Y104.146 E35.89678
G0 F6000 X105.843 Y103.581
G1 F1200 X114.155 Y111.892 E36.13135
G0 F6000 X114.155 Y111.326
G1 F1200 X105.843 Y103.015 E36.36592
G0 F6000 X105.843 Y102.449
G1 F1200 X114.155 Y110.761 E36.6005
G0 F6000 X114.155 Y110.195
G1 F1200 X105.843 Y101.884 E36.83507
G0 F6000 X105.843 Y101.318
G1 F1200 X114.155 Y109.629 E37.06964
G0 F6000 X114.155 Y109.064
G1 F1200 X105.843 Y100.752 E37.30422
G0 F6000 X105.843 Y100.187
G1 F1200 X114.155 Y108.498 E37.53879
G0 F6000 X114.155 Y107.932
G1 F1200 X105.843 Y99.621 E37.77336
G0 F6000 X105.843 Y99.055
G1 F1200 X114.155 Y107.367 E38.00794
G0 F6000 X114.155 Y106.801
G1 F1200 X105.843 Y98.49 E38.24251
G0 F6000 X105.843 Y97.924
G1 F1200 X114.155 Y106.235 E38.47708
G0 F6000 X114.155 Y105.67
G1 F1200 X105.843 Y97.358 E38.71166
G0 F6000 X105.843 Y96.793
G1 F1200 X114.155 Y105.104 E38.94623
G0 F6000 X114.155 Y104.538
G1 F1200 X105.843 Y96.227 E39.1808
G0 F6000 X105.843 Y95.661
G1 F1200 X114.155 Y103.972 E39.41537
G0 F6000 X114.155 Y103.407
G1 F1200 X105.843 Y95.095 E39.64995
G0 F6000 X105.843 Y94.53
G1 F1200 X114.155 Y102.841 E39.88452
G0 F6000 X114.155 Y102.275
G1 F1200 X105.843 Y93.964 E40.11909
G0 F6000 X105.843 Y93.398
G1 F1200 X114.155 Y101.71 E40.35367
G0 F6000 X114.155 Y101.144
G1 F1200 X105.843 Y92.833 E40.58824
G0 F6000 X105.843 Y92.267
G1 F1200 X114.155 Y100.578 E40.82281
G0 F6000 X114.155 Y100.013
G1 F1200 X105.843 Y91.701 E41.05739
G0 F6000 X105.843 Y91.136
G1 F1200 X114.155 Y99.447 E41.29196
G0 F6000 X114.155 Y98.881
G1 F1200 X105.843 Y90.57 E41.52653
G0 F6000 X105.843 Y90.004
G1 F1200 X114.155 Y98.316 E41.76111
G0 F6000 X114.155 Y97.75
G1 F1200 X105.843 Y89.439 E41.99568
G0 F6000 X105.843 Y88.873
G1 F1200 X114.155 Y97.184 E42.23025
G0 F6000 X114.155 Y96.619
G1 F1200 X105.843 Y88.307 E42.46483
G0 F6000 X105.843 Y87.742
G1 F1200 X114.155 Y96.053 E42.6994
G0 F6000 X114.155 Y95.487
G1 F1200 X105.843 Y87.176 E42.93397
G0 F6000 X105.843 Y86.61
G1 F1200 X114.155 Y94.922 E43.16855
G0 F6000 X114.155 Y94.356
G1 F1200 X105.843 Y86.044 E43.40313
G0 F6000 X105.843 Y85.479
G1 F1200 X114.155 Y93.79 E43.6377
G0 F6000 X114.155 Y93.224
G1 F1200 X105.843 Y84.913 E43.87227
G0 F6000 X105.843 Y84.347
G1 F1200 X114.155 Y92.659 E44.10685
G0 F6000 X114.155 Y92.093
G1 F1200 X105.843 Y83.782 E44.34142
G0 F6000 X105.843 Y83.216
G1 F1200 X114.155 Y91.527 E44.57599
G0 F6000 X114.155 Y90.962
G1 F1200 X105.843 Y82.65 E44.81057
